X: 1
T: By Accident
M: 6/8
L: 1/8
R: jig
K: Dmaj
ADD BDD|ADD A2 B|ADD BDD|ABd ABd|
ADD BDD|ADD A2 B|def edB|AFE D3:|
A2 A ABd|ABd ABd|A2 A ABd|fed BAF|
A2 A ABd|ABd ABd|fed BAG|FED D3:|
